; generated by Slic3r 1.2.9 on 2016-10-17 at 20:42:46

; external perimeters extrusion width = 0.40mm
; perimeters extrusion width = 0.67mm
; infill extrusion width = 0.67mm
; solid infill extrusion width = 0.67mm
; top infill extrusion width = 0.67mm

M107
M190 S100 ; set bed temperature
M104 S235 ; set temperature
G28 ; home all axes
M109 S235 ; wait for temperature to be reached
G21 ; set units to millimeters
G90 ; use absolute coordinates
M82 ; use absolute distances for extrusion
G92 E0
G1 E-3.00000 F4800.00000
G92 E0
G1 Z0.200 F12000.000
G1 Z0.400 F12000.000
G1 X0.050 Y-28.635 F12000.000
G1 Z0.200 F12000.000
G1 E3.00000 F4800.00000
G1 X28.637 Y-0.048 E4.26037 F600.000
G1 X29.264 Y0.623 E4.28899
G1 X30.101 Y1.621 E4.32960
G1 X30.682 Y2.399 E4.35987
G1 X31.224 Y3.203 E4.39011
G1 X31.730 Y4.037 E4.42052
G1 X32.190 Y4.884 E4.45057
G1 X32.614 Y5.761 E4.48094
G1 X32.995 Y6.656 E4.51127
G1 X33.332 Y7.568 E4.54157
G1 X33.624 Y8.494 E4.57185
G1 X33.873 Y9.434 E4.60217
G1 X34.075 Y10.380 E4.63232
G1 X34.231 Y11.332 E4.66238
G1 X34.343 Y12.304 E4.69289
G1 X34.408 Y13.269 E4.72307
G1 X34.426 Y14.241 E4.75336
G1 X34.397 Y15.236 E4.78439
G1 X34.323 Y16.183 E4.81402
G1 X34.253 Y16.790 E4.83306
G1 X34.103 Y17.748 E4.86328
G1 X33.908 Y18.698 E4.89351
G1 X33.668 Y19.637 E4.92373
G1 X33.383 Y20.564 E4.95396
G1 X33.054 Y21.476 E4.98418
G1 X32.682 Y22.371 E5.01441
G1 X32.268 Y23.247 E5.04463
G1 X31.812 Y24.103 E5.07486
G1 X31.316 Y24.936 E5.10508
G1 X30.780 Y25.744 E5.13531
G1 X30.207 Y26.526 E5.16554
G1 X29.597 Y27.280 E5.19576
G1 X28.952 Y28.003 E5.22598
G1 X28.272 Y28.695 E5.25621
G1 X27.281 Y29.595 E5.29796
G1 X26.526 Y30.207 E5.32826
G1 X25.744 Y30.780 E5.35848
G1 X24.936 Y31.316 E5.38871
G1 X24.103 Y31.812 E5.41893
G1 X23.247 Y32.268 E5.44916
G1 X22.371 Y32.682 E5.47939
G1 X21.476 Y33.054 E5.50961
G1 X20.564 Y33.383 E5.53983
G1 X19.981 Y33.568 E5.55888
G1 X19.065 Y33.820 E5.58850
G1 X18.096 Y34.037 E5.61945
G1 X17.143 Y34.203 E5.64961
G1 X15.826 Y34.356 E5.69096
G1 X15.206 Y34.399 E5.71035
G1 X14.267 Y34.426 E5.73962
G1 X13.269 Y34.408 E5.77072
G1 X12.305 Y34.343 E5.80087
G1 X10.993 Y34.180 E5.84208
G1 X10.381 Y34.075 E5.86143
G1 X9.461 Y33.879 E5.89075
G1 X8.494 Y33.624 E5.92194
G1 X7.568 Y33.332 E5.95222
G1 X6.338 Y32.865 E5.99321
G1 X5.761 Y32.614 E6.01284
G1 X4.922 Y32.209 E6.04188
G1 X4.036 Y31.730 E6.07328
G1 X2.923 Y31.041 E6.11411
G1 X2.399 Y30.682 E6.13391
G1 X1.657 Y30.128 E6.16278
G1 X0.873 Y29.485 E6.19438
G1 X-0.048 Y28.637 E6.23341
G1 X-28.861 Y-0.185 E7.50396
G1 X-29.364 Y-0.734 E7.52717
G1 X-30.126 Y-1.654 E7.56441
G1 X-30.705 Y-2.432 E7.59464
G1 X-31.126 Y-3.049 E7.61792
G1 X-31.556 Y-3.740 E7.64331
G1 X-32.106 Y-4.719 E7.67831
G1 X-32.539 Y-5.594 E7.70875
G1 X-32.927 Y-6.485 E7.73902
G1 X-33.341 Y-7.596 E7.77600
G1 X-33.572 Y-8.313 E7.79949
G1 X-33.829 Y-9.250 E7.82977
G1 X-34.039 Y-10.194 E7.85992
G1 X-34.180 Y-10.990 E7.88512
G1 X-34.345 Y-12.327 E7.92713
G1 X-34.400 Y-13.087 E7.95087
G1 X-34.427 Y-14.055 E7.98109
G1 X-34.408 Y-15.021 E8.01119
G1 X-34.356 Y-15.823 E8.03625
G1 X-34.200 Y-17.161 E8.07826
G1 X-34.073 Y-17.920 E8.10223
G1 X-33.869 Y-18.869 E8.13248
G1 X-33.621 Y-19.806 E8.16272
G1 X-33.328 Y-20.731 E8.19297
G1 X-32.993 Y-21.635 E8.22302
G1 X-32.683 Y-22.368 E8.24783
G1 X-32.096 Y-23.581 E8.28984
G1 X-31.723 Y-24.262 E8.31404
G1 X-31.218 Y-25.092 E8.34434
G1 X-30.675 Y-25.896 E8.37459
G1 X-30.094 Y-26.674 E8.40485
G1 X-29.480 Y-27.418 E8.43495
G1 X-28.827 Y-28.137 E8.46521
G1 X-28.141 Y-28.823 E8.49546
G1 X-27.563 Y-29.351 E8.51987
G1 X-26.524 Y-30.209 E8.56188
G1 X-25.892 Y-30.678 E8.58643
G1 X-25.087 Y-31.222 E8.61670
G1 X-24.262 Y-31.723 E8.64679
G1 X-23.410 Y-32.186 E8.67702
G1 X-22.535 Y-32.610 E8.70735
G1 X-21.824 Y-32.915 E8.73146
G1 X-20.561 Y-33.384 E8.77347
G1 X-19.800 Y-33.622 E8.79831
G1 X-18.867 Y-33.869 E8.82840
G1 X-17.920 Y-34.073 E8.85862
G1 X-16.961 Y-34.231 E8.88889
G1 X-15.997 Y-34.343 E8.91916
G1 X-15.233 Y-34.397 E8.94304
G1 X-13.886 Y-34.425 E8.98505
G1 X-13.082 Y-34.400 E9.01012
G1 X-12.119 Y-34.326 E9.04021
G1 X-11.154 Y-34.206 E9.07055
G1 X-10.199 Y-34.041 E9.10077
G1 X-9.251 Y-33.829 E9.13105
G1 X-8.521 Y-33.632 E9.15463
G1 X-7.239 Y-33.215 E9.19664
G1 X-6.479 Y-32.924 E9.22200
G1 X-5.594 Y-32.538 E9.25212
G1 X-4.723 Y-32.108 E9.28240
G1 X-3.875 Y-31.637 E9.31264
G1 X-3.049 Y-31.126 E9.34293
G1 X-2.432 Y-30.705 E9.36621
G1 X-1.358 Y-29.891 E9.40822
G1 X-0.729 Y-29.360 E9.43389
G1 X0.008 Y-28.677 E9.46520
G1 X-0.202 Y-28.382 F12000.000
G1 X28.385 Y0.204 E10.72557 F600.000
G1 X29.001 Y0.865 E10.75373
G1 X29.817 Y1.838 E10.79333
G1 X30.388 Y2.602 E10.82307
G1 X30.921 Y3.392 E10.85278
G1 X31.418 Y4.211 E10.88264
G1 X31.871 Y5.043 E10.91217
G1 X32.287 Y5.904 E10.94201
G1 X32.661 Y6.784 E10.97179
G1 X32.992 Y7.679 E11.00156
G1 X33.280 Y8.589 E11.03130
G1 X33.524 Y9.512 E11.06109
G1 X33.723 Y10.442 E11.09071
G1 X33.877 Y11.377 E11.12025
G1 X33.987 Y12.331 E11.15021
G1 X34.051 Y13.280 E11.17986
G1 X34.069 Y14.234 E11.20961
G1 X34.040 Y15.211 E11.24009
G1 X33.969 Y16.142 E11.26920
G1 X33.898 Y16.749 E11.28822
G1 X33.751 Y17.689 E11.31791
G1 X33.559 Y18.622 E11.34761
G1 X33.323 Y19.545 E11.37730
G1 X33.043 Y20.455 E11.40699
G1 X32.719 Y21.351 E11.43669
G1 X32.354 Y22.231 E11.46638
G1 X31.946 Y23.092 E11.49607
G1 X31.498 Y23.932 E11.52577
G1 X31.011 Y24.750 E11.55546
G1 X30.485 Y25.544 E11.58515
G1 X29.921 Y26.312 E11.61485
G1 X29.321 Y27.052 E11.64454
G1 X28.687 Y27.763 E11.67423
G1 X28.020 Y28.442 E11.70393
G1 X27.054 Y29.320 E11.74461
G1 X26.312 Y29.921 E11.77438
G1 X25.544 Y30.485 E11.80407
G1 X24.750 Y31.011 E11.83376
G1 X23.932 Y31.498 E11.86346
G1 X23.092 Y31.946 E11.89315
G1 X22.231 Y32.354 E11.92285
G1 X21.351 Y32.719 E11.95254
G1 X20.455 Y33.043 E11.98223
G1 X19.874 Y33.227 E12.00126
G1 X18.974 Y33.474 E12.03036
G1 X18.022 Y33.688 E12.06076
G1 X17.086 Y33.851 E12.09039
G1 X15.802 Y34.000 E12.13070
G1 X15.182 Y34.042 E12.15005
G1 X14.259 Y34.069 E12.17883
G1 X13.280 Y34.051 E12.20936
G1 X11.997 Y33.953 E12.24947
G1 X11.378 Y33.877 E12.26893
G1 X10.470 Y33.728 E12.29760
G1 X9.512 Y33.524 E12.32816
G1 X8.272 Y33.185 E12.36824
G1 X7.679 Y32.992 E12.38766
G1 X6.815 Y32.673 E12.41637
G1 X5.904 Y32.287 E12.44721
G1 X5.043 Y31.871 E12.47705
G1 X3.930 Y31.254 E12.51670
G1 X3.391 Y30.921 E12.53646
G1 X2.636 Y30.412 E12.56484
G1 X1.843 Y29.821 E12.59568
G1 X1.104 Y29.212 E12.62554
G1 X0.204 Y28.385 E12.66364
G1 X-28.598 Y-0.427 E13.93373
G1 X-29.097 Y-0.971 E13.95673
G1 X-29.842 Y-1.870 E13.99313
G1 X-30.410 Y-2.634 E14.02282
G1 X-30.827 Y-3.245 E14.04589
G1 X-31.252 Y-3.928 E14.07095
G1 X-31.790 Y-4.886 E14.10521
G1 X-32.215 Y-5.746 E14.13511
G1 X-32.596 Y-6.620 E14.16485
G1 X-33.001 Y-7.706 E14.20099
G1 X-33.230 Y-8.417 E14.22426
G1 X-33.482 Y-9.337 E14.25400
G1 X-33.689 Y-10.264 E14.28361
G1 X-33.828 Y-11.050 E14.30851
G1 X-33.989 Y-12.354 E14.34945
G1 X-34.043 Y-13.106 E14.37296
G1 X-34.070 Y-14.058 E14.40265
G1 X-34.052 Y-15.006 E14.43221
G1 X-34.000 Y-15.799 E14.45698
G1 X-33.848 Y-17.103 E14.49792
G1 X-33.722 Y-17.854 E14.52165
G1 X-33.522 Y-18.786 E14.55137
G1 X-33.278 Y-19.707 E14.58107
G1 X-32.990 Y-20.615 E14.61079
G1 X-32.661 Y-21.503 E14.64031
G1 X-32.355 Y-22.228 E14.66484
G1 X-31.783 Y-23.410 E14.70579
G1 X-31.414 Y-24.084 E14.72973
G1 X-30.918 Y-24.899 E14.75949
G1 X-30.384 Y-25.689 E14.78921
G1 X-29.813 Y-26.453 E14.81894
G1 X-29.206 Y-27.189 E14.84869
G1 X-28.569 Y-27.890 E14.87822
G1 X-27.895 Y-28.564 E14.90794
G1 X-27.323 Y-29.087 E14.93209
G1 X-26.310 Y-29.923 E14.97304
G1 X-25.685 Y-30.387 E14.99731
G1 X-24.894 Y-30.921 E15.02705
G1 X-24.084 Y-31.413 E15.05660
G1 X-23.247 Y-31.869 E15.08631
G1 X-22.387 Y-32.285 E15.11609
G1 X-21.684 Y-32.587 E15.13995
G1 X-20.453 Y-33.044 E15.18090
G1 X-19.701 Y-33.279 E15.20546
G1 X-18.785 Y-33.522 E15.23501
G1 X-17.854 Y-33.722 E15.26470
G1 X-16.912 Y-33.877 E15.29443
G1 X-15.965 Y-33.987 E15.32417
G1 X-15.208 Y-34.041 E15.34781
G1 X-13.895 Y-34.068 E15.38876
G1 X-13.101 Y-34.043 E15.41353
G1 X-12.156 Y-33.971 E15.44309
G1 X-11.207 Y-33.853 E15.47289
G1 X-10.269 Y-33.690 E15.50258
G1 X-9.338 Y-33.483 E15.53233
G1 X-8.615 Y-33.287 E15.55568
G1 X-7.365 Y-32.881 E15.59662
G1 X-6.615 Y-32.594 E15.62167
G1 X-5.745 Y-32.215 E15.65125
G1 X-4.890 Y-31.792 E15.68100
G1 X-4.056 Y-31.330 E15.71071
G1 X-3.245 Y-30.827 E15.74046
G1 X-2.634 Y-30.410 E15.76353
G1 X-1.587 Y-29.617 E15.80448
G1 X-0.966 Y-29.093 E15.82982
G1 X-0.245 Y-28.425 E15.86047
G1 X-0.455 Y-28.130 F12000.000
G1 X28.338 Y0.671 E17.13010 F600.000
G1 X28.939 Y1.334 E17.15799
G1 X29.345 Y1.819 E17.17770
G1 X29.916 Y2.559 E17.20687
G1 X30.452 Y3.326 E17.23603
G1 X30.950 Y4.118 E17.26519
G1 X31.551 Y5.202 E17.30384
G1 X31.960 Y6.048 E17.33313
G1 X32.328 Y6.911 E17.36238
G1 X32.653 Y7.791 E17.39161
G1 X32.936 Y8.684 E17.42082
G1 X33.176 Y9.591 E17.45007
G1 X33.371 Y10.504 E17.47917
G1 X33.522 Y11.422 E17.50818
G1 X33.631 Y12.359 E17.53760
G1 X33.694 Y13.291 E17.56672
G1 X33.712 Y14.228 E17.59593
G1 X33.686 Y15.161 E17.62504
G1 X33.614 Y16.102 E17.65445
G1 X33.498 Y17.030 E17.68362
G1 X33.339 Y17.948 E17.71265
G1 X33.134 Y18.863 E17.74188
G1 X32.887 Y19.767 E17.77111
G1 X32.596 Y20.657 E17.80030
G1 X32.263 Y21.533 E17.82951
G1 X31.885 Y22.399 E17.85897
G1 X31.468 Y23.242 E17.88830
G1 X31.018 Y24.051 E17.91716
G1 X30.706 Y24.565 E17.93590
G1 X30.189 Y25.344 E17.96506
G1 X29.635 Y26.098 E17.99423
G1 X29.046 Y26.825 E18.02339
G1 X28.423 Y27.523 E18.05255
G1 X27.767 Y28.190 E18.08171
G1 X27.081 Y28.825 E18.11087
G1 X26.364 Y29.426 E18.14003
G1 X25.616 Y29.996 E18.16936
G1 X24.846 Y30.526 E18.19850
G1 X24.051 Y31.018 E18.22764
G1 X23.231 Y31.473 E18.25688
G1 X22.393 Y31.888 E18.28603
G1 X21.534 Y32.263 E18.31526
G1 X20.657 Y32.596 E18.34449
G1 X19.766 Y32.887 E18.37371
G1 X18.547 Y33.210 E18.41302
G1 X17.948 Y33.339 E18.43213
G1 X17.048 Y33.495 E18.46062
G1 X16.101 Y33.614 E18.49038
G1 X15.159 Y33.686 E18.51982
G1 X13.908 Y33.711 E18.55882
G1 X13.291 Y33.694 E18.57807
G1 X12.384 Y33.633 E18.60642
G1 X11.423 Y33.523 E18.63657
G1 X10.504 Y33.371 E18.66559
G1 X9.282 Y33.099 E18.70463
G1 X8.684 Y32.936 E18.72396
G1 X7.819 Y32.662 E18.75223
G1 X6.908 Y32.327 E18.78250
G1 X5.768 Y31.830 E18.82127
G1 X5.202 Y31.551 E18.84095
G1 X4.415 Y31.123 E18.86887
G1 X3.580 Y30.618 E18.89929
G1 X2.559 Y29.916 E18.93792
G1 X2.055 Y29.534 E18.95764
G1 X1.334 Y28.939 E18.98678
G1 X0.457 Y28.132 E19.02394
G1 X-28.336 Y-0.669 E20.29358
G1 X-28.830 Y-1.208 E20.31637
G1 X-29.557 Y-2.086 E20.35191
G1 X-30.116 Y-2.836 E20.38107
G1 X-30.529 Y-3.441 E20.40392
G1 X-30.948 Y-4.115 E20.42867
G1 X-31.474 Y-5.052 E20.46217
G1 X-31.889 Y-5.892 E20.49136
G1 X-32.266 Y-6.756 E20.52075
G1 X-32.599 Y-7.631 E20.54995
G1 X-32.887 Y-8.514 E20.57890
G1 X-33.098 Y-9.279 E20.60365
G1 X-33.375 Y-10.528 E20.64353
G1 X-33.500 Y-11.263 E20.66675
G1 X-33.616 Y-12.190 E20.69588
G1 X-33.687 Y-13.125 E20.72513
G1 X-33.713 Y-14.060 E20.75428
G1 X-33.695 Y-14.991 E20.78331
G1 X-33.644 Y-15.774 E20.80778
G1 X-33.496 Y-17.045 E20.84766
G1 X-33.371 Y-17.787 E20.87114
G1 X-33.174 Y-18.703 E20.90033
G1 X-32.935 Y-19.607 E20.92950
G1 X-32.652 Y-20.500 E20.95869
G1 X-32.329 Y-21.372 E20.98767
G1 X-32.026 Y-22.088 E21.01192
G1 X-31.469 Y-23.240 E21.05180
G1 X-31.104 Y-23.906 E21.07549
G1 X-30.617 Y-24.707 E21.10471
G1 X-30.093 Y-25.482 E21.13390
G1 X-29.532 Y-26.233 E21.16309
G1 X-28.940 Y-26.951 E21.19212
G1 X-28.310 Y-27.644 E21.22131
G1 X-27.648 Y-28.306 E21.25050
G1 X-27.083 Y-28.823 E21.27438
G1 X-26.096 Y-29.637 E21.31426
G1 X-25.478 Y-30.096 E21.33826
G1 X-24.702 Y-30.620 E21.36747
G1 X-23.906 Y-31.104 E21.39649
G1 X-23.084 Y-31.551 E21.42566
G1 X-22.240 Y-31.960 E21.45491
G1 X-21.544 Y-32.258 E21.47852
G1 X-20.345 Y-32.703 E21.51840
G1 X-19.602 Y-32.936 E21.54267
G1 X-18.702 Y-33.175 E21.57169
G1 X-17.787 Y-33.371 E21.60085
G1 X-16.863 Y-33.523 E21.63005
G1 X-15.933 Y-33.631 E21.65925
G1 X-15.184 Y-33.684 E21.68265
G1 X-13.905 Y-33.711 E21.72253
G1 X-13.120 Y-33.687 E21.74701
G1 X-12.192 Y-33.616 E21.77604
G1 X-11.260 Y-33.500 E21.80530
G1 X-10.339 Y-33.340 E21.83445
G1 X-9.424 Y-33.136 E21.86367
G1 X-8.709 Y-32.943 E21.88679
G1 X-7.492 Y-32.547 E21.92667
G1 X-6.751 Y-32.264 E21.95142
G1 X-5.897 Y-31.892 E21.98046
G1 X-5.056 Y-31.476 E22.00968
G1 X-4.238 Y-31.022 E22.03885
G1 X-3.441 Y-30.529 E22.06807
G1 X-2.836 Y-30.116 E22.09093
G1 X-1.816 Y-29.343 E22.13081
G1 X-1.203 Y-28.825 E22.15583
G1 X-0.497 Y-28.172 E22.18580
G1 X-0.707 Y-27.877 F12000.000
G1 X28.075 Y0.913 E23.45498 F600.000
G1 X28.666 Y1.564 E23.48239
G1 X29.071 Y2.048 E23.50205
G1 X29.632 Y2.775 E23.53068
G1 X30.157 Y3.528 E23.55931
G1 X30.646 Y4.305 E23.58794
G1 X31.232 Y5.361 E23.62558
G1 X31.633 Y6.192 E23.65434
G1 X31.994 Y7.039 E23.68305
G1 X32.314 Y7.902 E23.71174
G1 X32.592 Y8.779 E23.74042
G1 X32.827 Y9.669 E23.76913
G1 X33.019 Y10.565 E23.79770
G1 X33.168 Y11.467 E23.82619
G1 X33.275 Y12.387 E23.85506
G1 X33.337 Y13.302 E23.88365
G1 X33.355 Y14.221 E23.91233
G1 X33.330 Y15.138 E23.94091
G1 X33.259 Y16.061 E23.96977
G1 X33.146 Y16.972 E23.99841
G1 X32.989 Y17.874 E24.02692
G1 X32.789 Y18.772 E24.05561
G1 X32.546 Y19.659 E24.08430
G1 X32.261 Y20.533 E24.11296
G1 X31.934 Y21.393 E24.14164
G1 X31.564 Y22.243 E24.17055
G1 X31.160 Y23.061 E24.19897
G1 X30.871 Y23.591 E24.21779
G1 X30.401 Y24.379 E24.24642
G1 X29.893 Y25.145 E24.27505
G1 X29.349 Y25.885 E24.30368
G1 X28.771 Y26.598 E24.33231
G1 X28.159 Y27.283 E24.36093
G1 X27.515 Y27.937 E24.38956
G1 X26.840 Y28.561 E24.41819
G1 X26.137 Y29.151 E24.44682
G1 X25.402 Y29.710 E24.47561
G1 X24.646 Y30.230 E24.50422
G1 X23.866 Y30.713 E24.53282
G1 X23.061 Y31.160 E24.56153
G1 X22.238 Y31.566 E24.59015
G1 X21.394 Y31.934 E24.61884
G1 X20.533 Y32.261 E24.64754
G1 X19.659 Y32.546 E24.67622
G1 X18.472 Y32.861 E24.71449
G1 X17.874 Y32.989 E24.73358
G1 X16.989 Y33.143 E24.76156
G1 X16.060 Y33.259 E24.79076
G1 X15.136 Y33.330 E24.81966
G1 X13.918 Y33.354 E24.85763
G1 X13.302 Y33.337 E24.87685
G1 X12.410 Y33.277 E24.90470
G1 X11.468 Y33.168 E24.93428
G1 X10.566 Y33.020 E24.96277
G1 X9.376 Y32.755 E25.00078
G1 X8.779 Y32.592 E25.02008
G1 X7.930 Y32.323 E25.04785
G1 X7.036 Y31.993 E25.07754
G1 X5.926 Y31.510 E25.11530
G1 X5.361 Y31.232 E25.13492
G1 X4.588 Y30.811 E25.16237
G1 X3.769 Y30.315 E25.19220
G1 X2.775 Y29.632 E25.22981
G1 X2.272 Y29.250 E25.24948
G1 X1.564 Y28.666 E25.27809
G1 X0.709 Y27.880 E25.31432
G1 X-28.073 Y-0.911 E26.58349
G1 X-28.563 Y-1.445 E26.60607
G1 X-29.273 Y-2.301 E26.64076
G1 X-29.821 Y-3.038 E26.66938
G1 X-30.231 Y-3.638 E26.69203
G1 X-30.644 Y-4.303 E26.71646
G1 X-31.159 Y-5.219 E26.74921
G1 X-31.566 Y-6.043 E26.77786
G1 X-31.936 Y-6.891 E26.80672
G1 X-32.262 Y-7.751 E26.83539
G1 X-32.545 Y-8.618 E26.86381
G1 X-32.754 Y-9.373 E26.88824
G1 X-33.024 Y-10.589 E26.92706
G1 X-33.147 Y-11.316 E26.95005
G1 X-33.260 Y-12.226 E26.97865
G1 X-33.330 Y-13.144 E27.00736
G1 X-33.356 Y-14.062 E27.03598
G1 X-33.338 Y-14.976 E27.06448
G1 X-33.288 Y-15.750 E27.08865
G1 X-33.143 Y-16.986 E27.12747
G1 X-33.020 Y-17.721 E27.15070
G1 X-32.827 Y-18.620 E27.17936
G1 X-32.592 Y-19.508 E27.20800
G1 X-32.314 Y-20.384 E27.23665
G1 X-31.997 Y-21.240 E27.26510
G1 X-31.698 Y-21.948 E27.28906
G1 X-31.155 Y-23.069 E27.32788
G1 X-30.794 Y-23.728 E27.35131
G1 X-30.316 Y-24.514 E27.38000
G1 X-29.802 Y-25.276 E27.40865
G1 X-29.251 Y-26.012 E27.43732
G1 X-28.670 Y-26.717 E27.46581
G1 X-28.052 Y-27.398 E27.49447
G1 X-27.402 Y-28.048 E27.52312
G1 X-26.843 Y-28.559 E27.54674
G1 X-25.882 Y-29.351 E27.58556
G1 X-25.271 Y-29.805 E27.60928
G1 X-24.509 Y-30.320 E27.63795
G1 X-23.728 Y-30.794 E27.66644
G1 X-22.921 Y-31.233 E27.69508
G1 X-22.092 Y-31.634 E27.72379
G1 X-21.404 Y-31.930 E27.74715
G1 X-20.236 Y-32.363 E27.78597
G1 X-19.502 Y-32.593 E27.80996
G1 X-18.619 Y-32.827 E27.83844
G1 X-17.721 Y-33.020 E27.86706
G1 X-16.814 Y-33.170 E27.89573
G1 X-15.901 Y-33.276 E27.92440
G1 X-15.160 Y-33.328 E27.94756
G1 X-13.915 Y-33.354 E27.98638
G1 X-13.140 Y-33.330 E28.01056
G1 X-12.228 Y-33.261 E28.03905
G1 X-11.314 Y-33.147 E28.06778
G1 X-10.409 Y-32.990 E28.09640
G1 X-9.511 Y-32.790 E28.12508
G1 X-8.802 Y-32.598 E28.14798
