; generated by Slic3r 1.2.9 on 2016-10-21 at 21:26:04

; external perimeters extrusion width = 0.40mm
; perimeters extrusion width = 0.67mm
; infill extrusion width = 0.67mm
; solid infill extrusion width = 0.67mm
; top infill extrusion width = 0.67mm

M107
M190 S90 ; set bed temperature
M104 S245 ; set temperature
G28 ; home all axes
G1 Z5 F5000 ; lift nozzle

M109 S245 ; wait for temperature to be reached
G21 ; set units to millimeters
G90 ; use absolute coordinates
M82 ; use absolute distances for extrusion
G92 E0
G1 Z0.500 F7800.000
G1 E-3.00000 F3000.00000
G92 E0
G1 X93.331 Y73.367 F7800.000
G1 E3.00000 F3000.00000
G1 X95.204 Y71.178 E3.19925 F1200.000
G1 X97.213 Y69.052 E3.40157
G1 X98.920 Y67.391 E3.56628
G1 X100.739 Y65.763 E3.73507
G1 X102.957 Y63.945 E3.93339
G1 X105.084 Y62.360 E4.11686
G1 X107.525 Y60.713 E4.32053
G1 X109.537 Y59.478 E4.48378
G1 X111.685 Y58.278 E4.65397
G1 X114.228 Y56.998 E4.85083
G1 X116.654 Y55.914 E5.03456
G1 X119.411 Y54.835 E5.23931
G1 X121.631 Y54.074 E5.40162
G1 X124.002 Y53.369 E5.57270
G1 X126.749 Y52.680 E5.76857
G1 X129.669 Y52.099 E5.97442
G1 X131.974 Y51.742 E6.13573
G1 X134.446 Y51.462 E6.30782
G1 X137.259 Y51.267 E6.50281
G1 X140.247 Y51.206 E6.70948
G1 X142.741 Y51.267 E6.88198 F1200.000
G1 X145.392 Y51.446 E7.06578
G1 X148.026 Y51.742 E7.24906
G1 X150.331 Y52.099 E7.41037
G1 X153.420 Y52.720 E7.62825
G1 X155.826 Y53.321 E7.79978
G1 X158.542 Y54.131 E7.99576
G1 X160.880 Y54.940 E8.16684
G1 X163.346 Y55.914 E8.35023
G1 X165.772 Y56.998 E8.53396
G1 X168.142 Y58.185 E8.71730
G1 X170.463 Y59.478 E8.90101
G1 X172.721 Y60.869 E9.08442
G1 X174.916 Y62.360 E9.26794
G1 X176.819 Y63.774 E9.43192
G1 X179.261 Y65.763 E9.64972
G1 X181.080 Y67.391 E9.81851
G1 X183.133 Y69.402 E10.01726
G1 X184.796 Y71.178 E10.18555
G1 X186.526 Y73.191 E10.36910
G1 X188.165 Y75.278 E10.55260
G1 X189.711 Y77.435 E10.73614
G1 X191.161 Y79.658 E10.91968
G1 X192.385 Y81.725 E11.08582
G1 X193.867 Y84.504 E11.30363
G1 X194.902 Y86.680 E11.47022
G1 X195.938 Y89.122 E11.65374
G1 X196.867 Y91.609 E11.83728
G1 X197.685 Y94.133 E12.02081
G1 X198.390 Y96.691 E12.20431
G1 X198.934 Y99.058 E12.37222
G1 X199.035 Y99.539 E12.40625
G1 X199.502 Y102.156 E12.59004
G1 X199.823 Y104.518 E12.75490
G1 X200.069 Y107.160 E12.93842
G1 X200.199 Y109.811 E13.12195
G1 X200.211 Y112.464 E13.30546
G1 X196.765 Y223.781 E21.00736
G1 X196.295 Y226.104 E21.17126
G1 X195.085 Y228.141 E21.33516
G1 X193.269 Y229.664 E21.49906
G1 X191.052 Y230.502 E21.66296
G1 X189.697 Y230.633 E21.75710
G1 X90.304 Y230.632 E28.63075
G1 X87.967 Y230.235 E28.79465
G1 X85.893 Y229.088 E28.95855
G1 X84.314 Y227.320 E29.12245
G1 X83.409 Y225.130 E29.28636
G1 X83.236 Y223.780 E29.38049
G1 X79.792 Y112.676 E37.06768
G1 X79.801 Y109.811 E37.26584
G1 X79.912 Y107.436 E37.43021
G1 X80.147 Y104.789 E37.61399
G1 X80.498 Y102.156 E37.79774
G1 X80.965 Y99.539 E37.98154
G1 X81.066 Y99.058 E38.01557
G1 X81.610 Y96.691 E38.18347
G1 X82.315 Y94.134 E38.36697
G1 X83.133 Y91.609 E38.55050
G1 X84.062 Y89.122 E38.73404
G1 X85.098 Y86.680 E38.91756
G1 X86.133 Y84.504 E39.08415
G1 X87.615 Y81.725 E39.30197
G1 X88.840 Y79.658 E39.46811
G1 X90.289 Y77.435 E39.65164
G1 X91.835 Y75.278 E39.83519
G1 X93.294 Y73.415 E39.99883
G1 X93.752 Y73.698 F7800.000
G1 X95.599 Y71.540 E40.19527 F1200.000
G1 X97.587 Y69.435 E40.39550
G1 X99.282 Y67.786 E40.55907
G1 X101.096 Y66.163 E40.72736
G1 X103.283 Y64.370 E40.92294
G1 X105.391 Y62.798 E41.10479
G1 X107.806 Y61.169 E41.30627
G1 X109.805 Y59.941 E41.46849
G1 X111.946 Y58.746 E41.63807
G1 X114.455 Y57.483 E41.83230
G1 X116.859 Y56.408 E42.01441
G1 X119.585 Y55.342 E42.21687
G1 X121.792 Y54.585 E42.37823
G1 X124.154 Y53.883 E42.54864
G1 X126.865 Y53.203 E42.74196
G1 X129.751 Y52.628 E42.94544
G1 X132.044 Y52.273 E43.10587
G1 X134.505 Y51.995 E43.27720
G1 X137.282 Y51.802 E43.46971
G1 X140.235 Y51.741 E43.67396
G1 X142.718 Y51.802 E43.84567 F1200.000
G1 X145.346 Y51.980 E44.02784
G1 X147.956 Y52.273 E44.20952
G1 X150.249 Y52.628 E44.36995
G1 X153.291 Y53.240 E44.58455
G1 X155.688 Y53.838 E44.75538
G1 X158.368 Y54.638 E44.94879
G1 X160.696 Y55.443 E45.11920
G1 X163.141 Y56.408 E45.30098
G1 X165.545 Y57.483 E45.48308
G1 X167.895 Y58.660 E45.66482
G1 X170.195 Y59.941 E45.84690
G1 X172.433 Y61.321 E46.02870
G1 X174.609 Y62.798 E46.21061
G1 X176.499 Y64.204 E46.37350
G1 X178.904 Y66.163 E46.58803
G1 X180.718 Y67.786 E46.75632
G1 X182.742 Y69.768 E46.95230
G1 X184.401 Y71.540 E47.12012
G1 X186.116 Y73.535 E47.30206
G1 X187.740 Y75.604 E47.48394
G1 X189.272 Y77.742 E47.66587
G1 X190.709 Y79.946 E47.84779
G1 X191.923 Y81.998 E48.01268
G1 X193.384 Y84.735 E48.22722
G1 X194.416 Y86.906 E48.39348
G1 X195.443 Y89.327 E48.57538
G1 X196.363 Y91.792 E48.75731
G1 X197.174 Y94.294 E48.93921
G1 X197.873 Y96.830 E49.12110
G1 X198.411 Y99.177 E49.28763
G1 X198.971 Y102.228 E49.50217
G1 X199.292 Y104.587 E49.66682
G1 X199.535 Y107.206 E49.84873
G1 X199.663 Y109.834 E50.03064
G1 X199.676 Y112.464 E50.21253
G1 X196.229 Y223.764 E57.91332
G1 X195.763 Y225.994 E58.07085
G1 X194.560 Y227.928 E58.22837
G1 X192.766 Y229.332 E58.38590
G1 X189.697 Y230.097 E58.60466
G1 X90.304 Y230.096 E65.47831
G1 X88.061 Y229.699 E65.63584
G1 X86.090 Y228.557 E65.79336
G1 X84.631 Y226.807 E65.95089
G1 X83.771 Y223.763 E66.16965
G1 X80.328 Y112.659 E73.85684
G1 X80.337 Y109.833 E74.05227
G1 X80.447 Y107.462 E74.21647
G1 X80.680 Y104.838 E74.39862
G1 X81.029 Y102.228 E74.58074
G1 X81.589 Y99.177 E74.79528
G1 X82.127 Y96.830 E74.96181
G1 X82.826 Y94.294 E75.14369
G1 X83.637 Y91.792 E75.32560
G1 X84.557 Y89.327 E75.50753
G1 X85.584 Y86.906 E75.68943
G1 X86.616 Y84.735 E75.85569
G1 X88.077 Y81.998 E76.07023
G1 X89.291 Y79.946 E76.23513
G1 X90.728 Y77.742 E76.41704
G1 X92.260 Y75.603 E76.59897
G1 X93.715 Y73.745 E76.76219
G1 F6240
G1 X95.599 Y71.540 E75.43746
G1 F6240
G1 X97.587 Y69.435 E74.11508
G1 F6240
G1 X97.905 Y69.125 E73.91219
G1 E73.76219 F3000.00000
G92 E0
G1 X178.914 Y130.211 F7800.000
G1 E3.00000 F3000.00000
G1 X178.186 Y131.671 E3.11279 F1200.000
G1 X177.127 Y133.552 E3.26209
G1 X175.976 Y135.379 E3.41138
G1 X174.735 Y137.145 E3.56068
G1 X173.407 Y138.847 E3.70997
G1 X171.997 Y140.480 E3.85918
G1 X170.617 Y141.931 E3.99770
G1 X169.056 Y143.421 E4.14691
G1 X167.422 Y144.832 E4.29621
G1 X165.720 Y146.160 E4.44551
G1 X163.954 Y147.401 E4.59480
G1 X162.127 Y148.552 E4.74409
G1 X160.246 Y149.611 E4.89339
G1 X158.314 Y150.574 E5.04269
G1 X156.336 Y151.440 E5.19199
G1 X154.318 Y152.206 E5.34129
G1 X152.264 Y152.870 E5.49058
G1 X150.179 Y153.431 E5.63988
G1 X148.069 Y153.887 E5.78917
G1 X145.938 Y154.237 E5.93847
G1 X143.793 Y154.480 E6.08777
G1 X141.639 Y154.615 E6.23707
G1 X139.480 Y154.643 E6.38637
G1 X137.323 Y154.564 E6.53567
G1 X135.172 Y154.376 E6.68497
G1 X133.033 Y154.081 E6.83426
G1 X130.912 Y153.680 E6.98356
G1 X128.813 Y153.174 E7.13286
G1 X126.743 Y152.563 E7.28216
G1 X124.705 Y151.850 E7.43146
G1 X122.706 Y151.036 E7.58076
G1 X120.749 Y150.123 E7.73006
G1 X118.841 Y149.113 E7.87935
G1 X116.986 Y148.010 E8.02865
G1 X115.188 Y146.815 E8.17795
G1 X113.451 Y145.532 E8.32725
G1 X111.781 Y144.163 E8.47655
G1 X110.182 Y142.714 E8.62585
G1 X108.657 Y141.186 E8.77515
G1 X107.210 Y139.583 E8.92444
G1 X105.845 Y137.911 E9.07374
G1 X104.565 Y136.172 E9.22303
G1 X103.374 Y134.372 E9.37233
G1 X102.273 Y132.515 E9.52163
G1 X101.267 Y130.604 E9.67093
G1 X100.358 Y128.646 E9.82023
G1 X99.548 Y126.645 E9.96952
G1 X98.839 Y124.608 E10.11873
G1 X98.272 Y122.687 E10.25725
G1 X97.762 Y120.590 E10.40645
G1 X97.357 Y118.470 E10.55575
G1 X97.058 Y116.332 E10.70505
G1 X96.867 Y114.181 E10.85434
G1 X96.783 Y112.024 E11.00364
G1 X96.807 Y109.865 E11.15294
G1 X96.939 Y107.711 E11.30224
G1 X97.178 Y105.565 E11.45153
G1 X97.524 Y103.434 E11.60083
G1 X97.976 Y101.323 E11.75013
G1 X98.532 Y99.237 E11.89943
G1 X99.193 Y97.182 E12.04873
G1 X99.955 Y95.162 E12.19802
G1 X100.817 Y93.183 E12.34732
G1 X101.777 Y91.249 E12.49662
G1 X102.832 Y89.365 E12.64591
G1 X103.979 Y87.537 E12.79521
G1 X105.217 Y85.768 E12.94451
G1 X106.543 Y84.062 E13.09397
G1 X108.057 Y82.314 E13.25386
G1 X109.438 Y80.863 E13.39240
G1 X111.002 Y79.375 E13.54170
G1 X112.638 Y77.967 E13.69100
G1 X114.343 Y76.642 E13.84029
G1 X116.112 Y75.404 E13.98959
G1 X117.940 Y74.257 E14.13889
G1 X119.824 Y73.201 E14.28819
G1 X121.758 Y72.242 E14.43749
G1 X123.737 Y71.380 E14.58679
G1 X125.757 Y70.618 E14.73608
G1 X127.812 Y69.957 E14.88538
G1 X129.898 Y69.401 E15.03468
G1 X132.009 Y68.949 E15.18397
G1 X134.140 Y68.603 E15.33327
G1 X136.286 Y68.364 E15.48257
G1 X138.440 Y68.232 E15.63187
G1 X140.599 Y68.208 E15.78116 F1200.000
G1 X142.756 Y68.292 E15.93046
G1 X144.907 Y68.483 E16.07976
G1 X147.045 Y68.782 E16.22905
G1 X149.165 Y69.187 E16.37835
G1 X151.262 Y69.697 E16.52755
G1 X153.183 Y70.264 E16.66608
G1 X155.221 Y70.973 E16.81528
G1 X157.222 Y71.783 E16.96458
G1 X159.179 Y72.692 E17.11388
G1 X161.090 Y73.698 E17.26317
G1 X162.947 Y74.798 E17.41247
G1 X164.747 Y75.990 E17.56177
G1 X166.486 Y77.270 E17.71106
G1 X168.158 Y78.635 E17.86036
G1 X169.761 Y80.082 E18.00966
G1 X171.289 Y81.607 E18.15896
G1 X172.739 Y83.206 E18.30826
G1 X174.107 Y84.876 E18.45755
G1 X175.390 Y86.612 E18.60685
G1 X176.585 Y88.410 E18.75615
G1 X177.688 Y90.266 E18.90545
G1 X178.698 Y92.174 E19.05475
G1 X179.611 Y94.131 E19.20405
G1 X180.425 Y96.130 E19.35334
G1 X181.138 Y98.168 E19.50264
G1 X181.749 Y100.238 E19.65195
G1 X182.255 Y102.337 E19.80124
G1 X182.656 Y104.458 E19.95054
G1 X182.951 Y106.597 E20.09984
G1 X183.139 Y108.747 E20.24912
G1 X183.213 Y110.749 E20.38768
G1 X183.191 Y113.062 E20.54758
G1 X183.055 Y115.218 E20.69702
G1 X182.812 Y117.363 E20.84632
G1 X182.462 Y119.494 E20.99562
G1 X182.006 Y121.604 E21.14492
G1 X181.445 Y123.689 E21.29421
G1 X180.781 Y125.743 E21.44351
G1 X180.015 Y127.761 E21.59281
G1 X179.149 Y129.739 E21.74211
G1 X178.941 Y130.158 E21.77447
G1 X178.434 Y129.972 F7800.000
G1 X177.713 Y131.420 E21.88633 F1200.000
G1 X176.667 Y133.278 E22.03378
G1 X175.530 Y135.082 E22.18122
G1 X174.305 Y136.826 E22.32867
G1 X172.993 Y138.507 E22.47611
G1 X171.600 Y140.120 E22.62351
G1 X170.237 Y141.553 E22.76024
G1 X168.696 Y143.025 E22.90764
G1 X167.082 Y144.418 E23.05508
G1 X165.401 Y145.730 E23.20253
G1 X163.657 Y146.955 E23.34997
G1 X161.853 Y148.092 E23.49742
G1 X159.995 Y149.138 E23.64486
G1 X158.087 Y150.089 E23.79231
G1 X156.134 Y150.944 E23.93976
G1 X154.140 Y151.700 E24.08721
G1 X152.112 Y152.356 E24.23465
G1 X150.053 Y152.910 E24.38210
G1 X147.969 Y153.360 E24.52954
G1 X145.865 Y153.706 E24.67699
G1 X143.746 Y153.946 E24.82444
G1 X141.618 Y154.080 E24.97189
G1 X139.486 Y154.108 E25.11933
G1 X137.356 Y154.029 E25.26678
G1 X135.232 Y153.844 E25.41423
G1 X133.120 Y153.553 E25.56168
G1 X131.025 Y153.157 E25.70912
G1 X128.952 Y152.656 E25.85657
G1 X126.907 Y152.053 E26.00402
G1 X124.895 Y151.349 E26.15146
G1 X122.920 Y150.545 E26.29892
G1 X120.988 Y149.643 E26.44636
G1 X119.103 Y148.646 E26.59381
G1 X117.271 Y147.556 E26.74126
G1 X115.495 Y146.376 E26.88871
G1 X113.780 Y145.109 E27.03615
G1 X112.131 Y143.758 E27.18360
G1 X110.552 Y142.326 E27.33105
G1 X109.045 Y140.817 E27.47850
G1 X107.616 Y139.234 E27.62594
G1 X106.268 Y137.583 E27.77339
G1 X105.004 Y135.866 E27.92083
G1 X103.828 Y134.088 E28.06828
G1 X102.741 Y132.253 E28.21572
G1 X101.748 Y130.367 E28.36317
G1 X100.850 Y128.433 E28.51062
G1 X100.049 Y126.457 E28.65806
G1 X99.349 Y124.444 E28.80546
G1 X98.790 Y122.547 E28.94219
G1 X98.286 Y120.477 E29.08958
G1 X97.886 Y118.382 E29.23703
G1 X97.591 Y116.271 E29.38447
G1 X97.402 Y114.147 E29.53192
G1 X97.319 Y112.017 E29.67937
G1 X97.342 Y109.885 E29.82682
G1 X97.472 Y107.757 E29.97426
G1 X97.709 Y105.638 E30.12171
G1 X98.050 Y103.533 E30.26915
G1 X98.497 Y101.448 E30.41660
G1 X99.047 Y99.388 E30.56405
G1 X99.699 Y97.358 E30.71150
G1 X100.451 Y95.363 E30.85894
G1 X101.303 Y93.409 E31.00639
G1 X102.250 Y91.499 E31.15384
G1 X103.292 Y89.639 E31.30128
G1 X104.426 Y87.833 E31.44873
G1 X105.648 Y86.086 E31.59618
G1 X106.957 Y84.401 E31.74372
G1 X108.454 Y82.674 E31.90176
G1 X109.817 Y81.241 E32.03851
G1 X111.361 Y79.772 E32.18596
G1 X112.978 Y78.381 E32.33341
G1 X114.661 Y77.073 E32.48086
G1 X116.408 Y75.851 E32.62830
G1 X118.214 Y74.717 E32.77575
G1 X120.074 Y73.675 E32.92320
G1 X121.984 Y72.727 E33.07064
G1 X123.939 Y71.876 E33.21809
G1 X125.933 Y71.124 E33.36554
G1 X127.963 Y70.471 E33.51299
G1 X130.023 Y69.922 E33.66043
G1 X132.108 Y69.475 E33.80788
G1 X134.213 Y69.134 E33.95533
G1 X136.332 Y68.897 E34.10277
G1 X138.460 Y68.767 E34.25022
G1 X140.592 Y68.744 E34.39767 F1200.000
G1 X142.722 Y68.826 E34.54511
G1 X144.846 Y69.016 E34.69256
G1 X146.957 Y69.311 E34.84000
G1 X149.052 Y69.711 E34.98745
G1 X151.122 Y70.215 E35.13484
G1 X153.019 Y70.774 E35.27158
G1 X155.032 Y71.474 E35.41897
G1 X157.008 Y72.274 E35.56642
G1 X158.942 Y73.173 E35.71386
G1 X160.828 Y74.166 E35.86130
G1 X162.663 Y75.252 E36.00876
G1 X164.441 Y76.429 E36.15620
G1 X166.158 Y77.693 E36.30364
G1 X167.809 Y79.041 E36.45109
G1 X169.392 Y80.470 E36.59854
G1 X170.901 Y81.976 E36.74599
G1 X172.333 Y83.556 E36.89344
G1 X173.684 Y85.205 E37.04088
G1 X174.951 Y86.920 E37.18833
G1 X176.131 Y88.696 E37.33578
G1 X177.221 Y90.528 E37.48322
G1 X178.218 Y92.413 E37.63067
G1 X179.120 Y94.345 E37.77812
G1 X179.924 Y96.320 E37.92556
G1 X180.628 Y98.332 E38.07302
G1 X181.231 Y100.377 E38.22046
G1 X181.732 Y102.450 E38.36791
G1 X182.128 Y104.545 E38.51536
G1 X182.419 Y106.657 E38.66281
G1 X182.604 Y108.781 E38.81024
G1 X182.678 Y110.757 E38.94701
G1 X182.655 Y113.042 E39.10505
G1 X182.521 Y115.171 E39.25259
G1 X182.281 Y117.290 E39.40003
G1 X181.935 Y119.394 E39.54748
G1 X181.485 Y121.478 E39.69493
G1 X180.931 Y123.537 E39.84238
G1 X180.275 Y125.565 E39.98982
G1 X179.519 Y127.559 E40.13727
G1 X178.664 Y129.512 E40.28472
G1 X178.461 Y129.919 E40.31615
G1 X177.955 Y129.733 F7800.000
G1 X177.239 Y131.169 E40.42709 F1200.000
G1 X176.207 Y133.004 E40.57269
G1 X175.084 Y134.785 E40.71828
G1 X173.874 Y136.507 E40.86387
G1 X172.579 Y138.167 E41.00946
G1 X171.203 Y139.761 E41.15504
G1 X169.858 Y141.174 E41.29000
G1 X168.336 Y142.628 E41.43558
G1 X166.742 Y144.004 E41.58117
G1 X165.082 Y145.299 E41.72677
G1 X163.360 Y146.509 E41.87236
G1 X161.579 Y147.632 E42.01795
G1 X159.744 Y148.664 E42.16355
G1 X157.860 Y149.604 E42.30914
G1 X155.931 Y150.448 E42.45474
G1 X153.963 Y151.195 E42.60034
G1 X151.960 Y151.842 E42.74593
G1 X149.927 Y152.389 E42.89153
G1 X147.869 Y152.834 E43.03712
G1 X145.791 Y153.175 E43.18272
G1 X143.699 Y153.412 E43.32832
G1 X141.598 Y153.545 E43.47391
G1 X139.493 Y153.572 E43.61951
G1 X137.389 Y153.494 E43.76511
G1 X135.292 Y153.311 E43.91070
G1 X133.206 Y153.024 E44.05630
G1 X131.137 Y152.633 E44.20190
G1 X129.091 Y152.139 E44.34750
G1 X127.071 Y151.543 E44.49309
G1 X125.084 Y150.848 E44.63869
G1 X123.134 Y150.054 E44.78429
G1 X121.227 Y149.163 E44.92988
G1 X119.366 Y148.179 E45.07548
G1 X117.556 Y147.103 E45.22107
G1 X115.803 Y145.937 E45.36667
G1 X114.110 Y144.686 E45.51227
G1 X112.481 Y143.352 E45.65787
G1 X110.921 Y141.938 E45.80347
G1 X109.434 Y140.448 E45.94906
G1 X108.023 Y138.885 E46.09466
G1 X106.692 Y137.254 E46.24025
G1 X105.443 Y135.559 E46.38585
G1 X104.282 Y133.803 E46.53144
G1 X103.209 Y131.992 E46.67704
G1 X102.228 Y130.129 E46.82263
G1 X101.341 Y128.219 E46.96823
G1 X100.551 Y126.268 E47.11382
G1 X99.859 Y124.280 E47.25940
G1 X99.307 Y122.408 E47.39436
G1 X98.809 Y120.363 E47.53993
G1 X98.414 Y118.295 E47.68553
G1 X98.123 Y116.210 E47.83112
G1 X97.936 Y114.113 E47.97671
G1 X97.855 Y112.009 E48.12231
G1 X97.878 Y109.904 E48.26791
G1 X98.006 Y107.803 E48.41350
G1 X98.239 Y105.710 E48.55910
G1 X98.577 Y103.632 E48.70469
G1 X99.018 Y101.573 E48.85029
G1 X99.561 Y99.539 E48.99589
G1 X100.204 Y97.535 E49.14148
G1 X100.948 Y95.565 E49.28708
G1 X101.788 Y93.635 E49.43267
G1 X102.724 Y91.749 E49.57827
G1 X103.753 Y89.912 E49.72387
G1 X104.873 Y88.129 E49.86946
G1 X106.080 Y86.404 E50.01506
G1 X107.372 Y84.741 E50.16069
G1 X108.850 Y83.034 E50.31688
G1 X110.195 Y81.620 E50.45184
G1 X111.721 Y80.169 E50.59744
G1 X113.317 Y78.796 E50.74304
G1 X114.979 Y77.505 E50.88863
